svg/logo/lemon_squeezy_line.svg

<svg xmlns="http://www.w3.org/2000/svg" width="24" height="24" viewBox="0 0 24 24"><g fill="none" fill-rule="evenodd"><path d="M24,0 L24,24 L0,24 L0,0 L24,0 Z M12.5935,23.2578 L12.5819,23.2595 L12.5109,23.295 L12.4919,23.2987 L12.4767,23.295 L12.4057,23.2595 C12.3958,23.2564 12.387,23.259 12.3821,23.2649 L12.378,23.2758 L12.3609,23.7031 L12.3659,23.7235 L12.3769,23.7357 L12.4805,23.8097 L12.4953,23.8136 L12.5071,23.8097 L12.6107,23.7357 L12.6233,23.7197 L12.6267,23.7031 L12.6096,23.2758 C12.6076,23.2657 12.601,23.2593 12.5935,23.2578 Z M12.8584,23.1453 L12.8445,23.1473 L12.6598,23.2397 L12.6499,23.2499 L12.6472,23.2611 L12.6651,23.6906 L12.6699,23.7034 L12.6784,23.7105 L12.8793,23.8032 C12.8914,23.8069 12.9022,23.803 12.9078,23.7952 L12.9118,23.7812 L12.8777,23.1665 C12.8753,23.1546 12.8674,23.147 12.8584,23.1453 Z M12.143,23.1473 C12.1332,23.1424 12.1222,23.1453 12.1156,23.1526 L12.1099,23.1665 L12.0758,23.7812 C12.0751,23.7927 12.0828,23.8019 12.0926,23.8046 L12.1083,23.8032 L12.3092,23.7105 L12.3186,23.7024 L12.3225,23.6906 L12.3404,23.2611 L12.3372,23.2485 L12.3278,23.2397 L12.143,23.1473 Z"/><path fill="#09244B" d="M7.25,4.75 C7.25,4.33579 7.58579,4 8,4 C8.41421,4 8.75,4.33579 8.75,4.75 C8.75,4.83317 8.70663,5.09456 8.57216,5.55968 C8.42991,6.05169 8.22177,6.65317 8,7.25318 C7.77823,6.65317 7.57009,6.05169 7.42784,5.55968 C7.29337,5.09456 7.25,4.83317 7.25,4.75 Z M8,2 C6.48122,2 5.25,3.23122 5.25,4.75 C5.25,5.15008 5.37538,5.66156 5.50653,6.11517 C5.64823,6.60526 5.83794,7.16115 6.0351,7.70388 C6.42956,8.78973 6.87501,9.88011 7.07152,10.3714 C7.22339,10.751 7.5911,11 8,11 C8.4089,11 8.77661,10.751 8.92848,10.3714 C9.12499,9.8801 9.57045,8.78969 9.9649,7.70388 C10.1621,7.16115 10.3518,6.60526 10.4935,6.11517 C10.6246,5.66156 10.75,5.15008 10.75,4.75 C10.75,3.23122 9.51878,2 8,2 Z M13.4802,6.70919 C13.7731,6.4163 14.2479,6.4163 14.5408,6.70919 C14.8337,7.00209 14.8337,7.47696 14.5408,7.76985 C14.482,7.82866 14.2665,7.98283 13.8425,8.21663 C13.3941,8.46395 12.8216,8.74208 12.2405,9.00954 C12.5079,8.42845 12.7861,7.85596 13.0334,7.40748 C13.2672,6.9835 13.4214,6.768 13.4802,6.70919 Z M15.955,5.29498 C14.8811,4.22104 13.1399,4.22104 12.066,5.29498 C11.7831,5.57788 11.51,6.02821 11.282,6.4417 C11.0357,6.88844 10.7768,7.41565 10.5324,7.93883 C10.0437,8.9851 9.5875,10.0715 9.37904,10.5579 C9.21797,10.9338 9.30194,11.3698 9.59108,11.6589 C9.88022,11.9481 10.3163,12.0321 10.6921,11.871 C11.569,11.4952 12.4467,11.1214 13.3112,10.7176 C13.8344,10.4733 14.3616,10.2143 14.8083,9.96799 C15.2218,9.73998 15.6721,9.46697 15.955,9.18407 C17.029,8.11012 17.029,6.36892 15.955,5.29498 Z M17.25,13.25 C17.25,12.8358 16.9142,12.5 16.5,12.5 C16.4168,12.5 16.1554,12.5434 15.6903,12.6778 C15.1983,12.8201 14.5968,13.0282 13.9968,13.25 C14.5968,13.4718 15.1983,13.6799 15.6903,13.8222 C16.1554,13.9566 16.4168,14 16.5,14 C16.9142,14 17.25,13.6642 17.25,13.25 Z M16.5,10.5 C18.0188,10.5 19.25,11.7312 19.25,13.25 C19.25,14.7688 18.0188,16 16.5,16 C16.0999,16 15.5884,15.8746 15.1348,15.7435 C14.6447,15.6018 14.0889,15.4121 13.5461,15.2149 C12.4607,14.8206 11.3699,14.375 10.8786,14.1785 C10.499,14.0266 10.25,13.6589 10.25,13.25 C10.25,12.8411 10.499,12.4734 10.8786,12.3215 C11.3699,12.125 12.4603,11.6796 13.5461,11.2851 C14.0889,11.0879 14.6447,10.8982 15.1348,10.7565 C15.5884,10.6254 16.0999,10.5 16.5,10.5 Z M14.5408,18.7299 C14.8337,19.0228 14.8337,19.4977 14.5408,19.7906 C14.2479,20.0835 13.773,20.0835 13.4801,19.7906 C13.4213,19.7318 13.2672,19.5163 13.0334,19.0923 C12.7861,18.6438 12.5079,18.0713 12.2405,17.4902 C12.8216,17.7577 13.394,18.0358 13.8425,18.2831 C14.2665,18.5169 14.482,18.6711 14.5408,18.7299 Z M15.955,21.2048 C17.029,20.1309 17.029,18.3897 15.955,17.3157 C15.6721,17.0328 15.2218,16.7598 14.8083,16.5318 C14.3616,16.2854 13.8343,16.0265 13.3112,15.7822 C12.2644,15.2933 11.1784,14.8372 10.6921,14.6288 C10.3162,14.4677 9.8802,14.5517 9.59106,14.8408 C9.30192,15.13 9.21795,15.566 9.37902,15.9419 C9.58745,16.4282 10.0435,17.5142 10.5324,18.5609 C10.7767,19.0841 11.0357,19.6113 11.282,20.0581 C11.51,20.4716 11.783,20.9219 12.0659,21.2048 C13.1399,22.2787 14.8811,22.2787 15.955,21.2048 Z"/></g></svg>

<svg xmlns="http://www.w3.org/2000/svg" width="24" height="24"><g fill="none" fill-rule="evenodd"><path d="M24 0v24H0V0zM12.594 23.258l-.012.002-.071.035-.02.004-.014-.004-.071-.036c-.01-.003-.019 0-.024.006l-.004.01-.017.428.005.02.01.013.104.074.015.004.012-.004.104-.074.012-.016.004-.017-.017-.427c-.002-.01-.009-.017-.016-.018m.264-.113-.014.002-.184.093-.01.01-.003.011.018.43.005.012.008.008.201.092c.012.004.023 0 .029-.008l.004-.014-.034-.614c-.003-.012-.01-.02-.02-.022m-.715.002a.023.023 0 0 0-.027.006l-.006.014-.034.614c0 .012.007.02.017.024l.015-.002.201-.093.01-.008.003-.011.018-.43-.003-.012-.01-.01z"/><path fill="#09244B" d="M7.25 4.75a.75.75 0 0 1 1.5 0c0 .083-.043.345-.178.81-.142.492-.35 1.093-.572 1.693-.222-.6-.43-1.201-.572-1.693-.135-.465-.178-.727-.178-.81M8 2a2.75 2.75 0 0 0-2.75 2.75c0 .4.125.912.257 1.365.141.49.33 1.046.528 1.589.395 1.086.84 2.176 1.037 2.667a1 1 0 0 0 1.856 0c.197-.49.642-1.581 1.037-2.667a25.91 25.91 0 0 0 .528-1.589c.132-.453.257-.965.257-1.365A2.75 2.75 0 0 0 8 2m5.48 4.71a.75.75 0 1 1 1.06 1.06c-.058.059-.273.213-.697.447-.449.247-1.021.525-1.602.793.267-.582.545-1.154.792-1.603.234-.423.388-.639.447-.698m2.475-1.415a2.75 2.75 0 0 0-3.889 0c-.283.283-.556.733-.784 1.147-.246.446-.505.974-.75 1.497-.488 1.046-.944 2.133-1.153 2.619a1 1 0 0 0 1.313 1.313c.877-.376 1.755-.75 2.62-1.153.522-.245 1.05-.504 1.496-.75.414-.228.864-.501 1.147-.784a2.75 2.75 0 0 0 0-3.889m1.295 7.955a.75.75 0 0 0-.75-.75c-.083 0-.345.043-.81.178-.492.142-1.093.35-1.693.572.6.222 1.201.43 1.693.572.465.135.727.178.81.178a.75.75 0 0 0 .75-.75m-.75-2.75a2.75 2.75 0 1 1 0 5.5c-.4 0-.912-.125-1.365-.257a25.923 25.923 0 0 1-1.589-.528c-1.085-.394-2.176-.84-2.667-1.037a1 1 0 0 1 0-1.857c.49-.196 1.581-.641 2.667-1.036a25.923 25.923 0 0 1 1.589-.528c.453-.132.965-.257 1.365-.257m-1.96 8.23a.75.75 0 0 1-1.06 1.06c-.059-.058-.213-.274-.447-.698a26.038 26.038 0 0 1-.792-1.602 26.09 26.09 0 0 1 1.601.793c.425.234.64.388.699.447m1.415 2.475a2.75 2.75 0 0 0 0-3.89c-.283-.282-.733-.555-1.147-.783a25.879 25.879 0 0 0-1.497-.75c-1.047-.489-2.133-.945-2.619-1.153a1 1 0 0 0-1.313 1.313c.208.486.665 1.572 1.153 2.619.245.523.504 1.05.75 1.497.228.414.501.864.784 1.147a2.75 2.75 0 0 0 3.889 0"/></g></svg>
